X:1
T:Chinese
C:Jan Erik Massey
Z:All Rights Reserved
L:1/8
M:4/4
K:C
V:1 treble nm="C Trumpet"
%%MIDI program 56
V:1
!mf! GGGF D2 z2 | EEEC D2 z2 | EEEC DDDB, | CCCB, z A,3 | EEEC DDDB, | CCCB, z A,3 :| z8 | z8 | %8
w: Ev- ry- where I go|No- bo- dy frien- dly|I on- ly want a wa- rm Spot|to rest for the Day|I on- ly want a wa- rm Spot|to rest for the Day|||
 z8 | z8 | z8 | z8 |] %12
w: ||||

